assets/icons/action/new_custom38.svg

<?xml version="1.0"?><svg xmlns="http://www.w3.org/2000/svg" width="52" height="52" viewBox="0 0 52 52"><g fill="#fff"><path d="m26 22c-3.5 0-6.4 2.9-6.4 6.4s2.9 6.4 6.4 6.4 6.4-2.9 6.4-6.4-2.9-6.4-6.4-6.4z m19.2-8h-6.5c-0.6 0-1.2-0.3-1.4-1l-2.1-4.4c-0.8-1.6-2.5-2.6-4.3-2.6h-9.8c-1.8 0-3.5 1-4.3 2.6l-2.1 4.4c-0.2 0.6-0.8 1-1.4 1h-6.5c-2.6 0-4.8 2.2-4.8 4.8v22.4c0 2.6 2.2 4.8 4.8 4.8h38.4c2.6 0 4.8-2.2 4.8-4.8v-22.4c0-2.6-2.2-4.8-4.8-4.8z m-19.2 25.8c-6.2 0-11.2-5-11.2-11.2s5-11.2 11.2-11.2 11.2 5 11.2 11.2-5 11.2-11.2 11.2z"></path></g></svg>

<svg xmlns="http://www.w3.org/2000/svg" x="0px" y="0px"
	 width="52px" height="52px" viewBox="0 0 52 52" enable-background="new 0 0 52 52" xml:space="preserve">
<g>
	<path fill="#FFFFFF" d="M26,22c-3.5,0-6.4,2.9-6.4,6.4s2.9,6.4,6.4,6.4s6.4-2.9,6.4-6.4S29.5,22,26,22z"/>
	<path fill="#FFFFFF" d="M45.2,14h-6.5c-0.6,0-1.2-0.3-1.4-1l-2.1-4.4C34.4,7,32.7,6,30.9,6h-9.8c-1.8,0-3.5,1-4.3,2.6L14.7,13
		c-0.2,0.6-0.8,1-1.4,1H6.8C4.2,14,2,16.2,2,18.8v22.4C2,43.8,4.2,46,6.8,46h38.4c2.6,0,4.8-2.2,4.8-4.8V18.8
		C50,16.2,47.8,14,45.2,14z M26,39.8c-6.2,0-11.2-5-11.2-11.2s5-11.2,11.2-11.2s11.2,5,11.2,11.2S32.2,39.8,26,39.8z"/>
</g>
</svg>
